assets/img/icon-heart.svg

<svg width="16" height="16" viewBox="0 0 16 16" fill="none" xmlns="http://www.w3.org/2000/svg">
<path fill-rule="evenodd" clip-rule="evenodd" d="M10.9595 1.31641L10.9602 1.31641C13.4245 1.31641 15.4168 3.32237 15.4168 5.79307C15.4168 8.37589 14.2175 10.409 12.8019 11.8594C11.3967 13.2992 9.73336 14.2143 8.65895 14.5818C8.44149 14.6578 8.20249 14.6831 8.00016 14.6831C7.79783 14.6831 7.55884 14.6578 7.34137 14.5818C6.26696 14.2143 4.60363 13.2992 3.19843 11.8594C1.78282 10.409 0.583496 8.37589 0.583496 5.79307C0.583496 3.32237 2.57578 1.31641 5.04016 1.31641C6.1794 1.31641 7.21564 1.74649 7.99995 2.45127C8.29019 2.19077 8.61448 1.9688 8.96501 1.79196C9.58359 1.47988 10.2667 1.31702 10.9595 1.31641ZM5.04016 2.81641C3.41121 2.81641 2.0835 4.14378 2.0835 5.79307C2.0835 7.87692 3.04418 9.55381 4.27189 10.8117C5.50866 12.0789 6.97011 12.87 7.82913 13.1633L7.83646 13.1658L7.83644 13.1658C7.83539 13.1655 7.85086 13.1706 7.8852 13.1755C7.91783 13.1802 7.95744 13.1831 8.00016 13.1831C8.04289 13.1831 8.0825 13.1802 8.11513 13.1755C8.14946 13.1706 8.16494 13.1655 8.16388 13.1658L8.17118 13.1633L8.17119 13.1633C9.03022 12.87 10.4917 12.0789 11.7284 10.8117C12.9561 9.55381 13.9168 7.87692 13.9168 5.79307C13.9168 4.14389 12.5893 2.81658 10.9605 2.81641C10.502 2.81686 10.05 2.92466 9.64065 3.13118C9.2312 3.33774 8.87583 3.63733 8.60299 4.00594C8.46168 4.19686 8.23828 4.30955 8.00076 4.30974C7.76323 4.30993 7.53966 4.19759 7.39804 4.0069C6.85938 3.28157 6.00497 2.81641 5.04016 2.81641Z" fill="white"/>
</svg>

<svg width="16" height="16" fill="none" xmlns="http://www.w3.org/2000/svg"><path fill-rule="evenodd" clip-rule="evenodd" d="M10.96 1.316c2.464 0 4.457 2.006 4.457 4.477 0 2.583-1.2 4.616-2.615 6.066-1.405 1.44-3.069 2.355-4.143 2.723a2.046 2.046 0 01-.659.101 2.05 2.05 0 01-.659-.101c-1.074-.368-2.737-1.283-4.143-2.723C1.783 10.41.583 8.376.583 5.793c0-2.47 1.993-4.477 4.457-4.477 1.14 0 2.176.43 2.96 1.135a4.436 4.436 0 012.96-1.135zm-5.92 1.5a2.966 2.966 0 00-2.957 2.977c0 2.084.961 3.76 2.189 5.019 1.237 1.267 2.698 2.058 3.557 2.351l.007.003s.015.005.05.01a.824.824 0 00.23 0 .285.285 0 00.048-.01l.007-.003c.86-.293 2.32-1.084 3.557-2.351 1.228-1.258 2.189-2.935 2.189-5.019a2.966 2.966 0 00-2.957-2.977 2.937 2.937 0 00-2.357 1.19.75.75 0 01-1.205 0 2.927 2.927 0 00-2.358-1.19z" fill="#fff"/></svg>
